X:1
T:Victory over Sin
T:Victory over Sin
T:James Austin Butterfield
T:Henry Southwick Perkins, 1873
T:Public Domain Courtesy of the Cyber Hymnal™
T:Public Domain Courtesy of the Cyber Hymnal™
C:James Austin Butterfield
Z:Public Domain
Z:Courtesy of the Cyber Hymnal™
%%score ( 1 2 ) ( 3 4 )
L:1/8
Q:1/4=92
M:4/4
K:Eb
V:1 treble 
V:2 treble 
V:3 bass 
V:4 bass 
V:1
 E2 G>E B2 [EA][EG] | [Ec]>[Ec] [Ec][Fc] [GB]2 z2 | [FA]2 [GB]>[FA] [EG]2 [Ge]>[Ge] | %3
w: 1.~Thanks be to God for the|vic- tory o- ver sin;|Thanks for His Word and the|
w: 2.~Thanks for the gift of His|loved, His on- ly Son;|Thanks for the work which on|
w: 3.~Thanks for re- demp- tion, and|pur- chase by His blood;|Thanks for the love He has|
 (dB) [Ec]>[DB] [DB]4 | [DB]2 [Ec]>[Fd] [Ee]2 [EG]>[EG] | [Ec]2 [Ec]>[Ec] [EB]2 z2 | %6
w: teach- * ing there- in;|Thanks for His Son whom He|sent to pro- claim|
w: earth * He be- gun;|Thanks for the peace which it|brings to the soul,|
w: taught * in His Word;|Thanks for His Spir- it, for-|ev- er to reign,|
 [Ge]2 [Ad]>[Ac] B2 [Ec]>[EA] | [EG]2 [DG]>[DF] E4 || c6"^Refrain" (e c2) | B3 B2 E2 [GB] | %10
w: Tid- ings of good, and the|earth to re- claim.|||
w: Work- ing for Je- sus, His|love to un- fold.|Sing loud *|ho- san- na! Sing|
w: Peace on the earth, and good|will un- to men.|||
 [FA]2 [GB]2 [EG]2 [EB]2 | [DF]6 z2 | E2 G>E B2 [EA][EG] | [Ec]>[Ec] [Ec][Fc] [GB]2 z2 | %14
w: ||||
w: loud ho- san- na!|The|vic- tory’s gained o’er sin; Loud|swell the an- them by|
w: ||||
 [Ge]2 [Ad]>[Ac] B2 [Ec]>[EA] | [EG]>[EG] [DG][DF] E4 |] %16
w: ||
w: an- gels and by men; Glo-|ry to God for the|
w: ||
V:2
 E2 G>E B2 x2 | x8 | x8 | F2 x6 | x8 | x8 | x4 B2 x2 | x4 E4 || E2 E>E E E2 x2 | E2 E>E E x3 | x8 | %11
 x8 | E2 G>E B2 x2 | x8 | x4 B2 x2 | x4 E4 |] %16
V:3
 E,2 G,>E, B,2 [E,C][E,B,] | [A,,A,]>[B,,A,] [C,A,][D,A,] [E,G,]2 z2 | %2
w: ~ ~ ~ ~ ~ ~|~ ~ ~ ~ ~|
 [D,B,]2 [D,B,]>[D,B,] [E,B,]2 [C,C]>[C,C] | [F,B,]2 [F,=A,]>[B,,B,] [B,,B,]4 | %4
w: ~ ~ ~ ~ ~ ~|~ ~ ~ ~|
 B,2 [A,E]>[A,B,] [G,B,]2 [E,B,]>[E,B,] | [A,,A,]2 [A,,A,]>[A,,A,] [E,G,]2 z2 | %6
w: ~ ~ ~ ~ ~ ~|~ ~ ~ ~|
 [E,B,]2 [F,D]>[F,D] [G,E]2 [A,E]>[A,C] | B,2 [B,,A,]>[B,,A,] [E,G,]4 || %8
w: ~ ~ ~ ~ ~ ~|~ ~ ~ ~|
 [A,,A,]2 [A,,A,]>[A,,A,] [A,,A,] [A,,A,]2 z x | [E,G,]2 [E,G,]>[E,G,] [E,G,] [E,G,]2 [E,E] | %10
w: ~ ~ ~ ~ ~|~ ~ ~ ~ ~ ~|
 [B,,D]2 [B,,D]2 [E,E]2 [G,B,]2 | B,6 x2 | E,2 G,>E, B,2 [E,C][E,B,] | %13
w: ~ ~ ~ ~|~|We’ll shout and * * *|
 [A,,A,]>[B,,A,] [C,A,][D,A,] [E,G,]2 z2 | [E,B,]2 [F,D]>[F,D] [G,E]2 [A,E]>[A,C] | %15
w: ||
 B,>B, [C,A,][C,A,] [E,G,]4 |] %16
w: |
V:4
 E,2 G,>E, B,2 x2 | x8 | x8 | x8 | B,2 x6 | x8 | x8 | B,2 x6 || x9 | x8 | x8 | %11
 B,2 B,2 (B,A,) (G,F,) | x8 | x8 | x8 | B,>B, x6 |] %16

